!!!OTL: "Der Vogler" GRUESS DICH GOD MAI LIABI REGERL
!!!ARE: Europa, Mitteleuropa, Oesterreich
!!!SCT: Z1297
!!!YEM: Copyright 1995, estate of Helmut Schaffrath.
**kern
*ICvox
*Ivox
*M3/4
*k[f#c#g#d#]
*E:
{8.b
16g#
=1
4e
4e
8e
8e
=2
8e
8cc#
4.cc#}
{8b
=3
4b
4a
4g#
=4
2f#}
{8b
8g#
=5
4e
4e
4e
=6
8e
8cc#
4.cc#}
{8b
=7
4a
4g#
4f#
=8
4e
4.r}
{8f#
=9
4g#
4g#
4f#
=10
4e
4e}
{4g#
=11
4b
4a
4g#
=12
2f#}
{8.b
16g#
=13
4e
4e
8e
8e
=14
8e
8cc#
4.cc#}
{8b
=15
4a
4g#
4f#
=16
4e
4r}
==
!!!AGN: Jaeger - Lied
!!!ONB: ESAC (Essen Associative Code) Database: ZUCCAL
!!!AMT: simple triple
!!!AIN: vox
!!!EED: Helmut Schaffrath
!!!EEV: 1.0
*-
